assets/icons/qvision/accessibility.svg

<svg xmlns="http://www.w3.org/2000/svg" height="24" viewBox="0 0 24 24" width="24"><path d="M0 0h24v24H0z" fill="none"/><path d="M12 2c1.1 0 2 .9 2 2s-.9 2-2 2-2-.9-2-2 .9-2 2-2zm9 7h-6v13h-2v-6h-2v6H9V9H3V7h18v2z"/></svg>

<svg width="24" height="24" viewBox="0 0 24 24" fill="none" xmlns="http://www.w3.org/2000/svg">
<g clip-path="url(#clip0_147_3799)">
<path d="M12 2C13.1 2 14 2.9 14 4C14 5.1 13.1 6 12 6C10.9 6 10 5.1 10 4C10 2.9 10.9 2 12 2ZM21 9H15V22H13V16H11V22H9V9H3V7H21V9Z" fill="#323232"/>
</g>
<defs>
<clipPath id="clip0_147_3799">
<rect width="24" height="24" fill="white"/>
</clipPath>
</defs>
</svg>
